!!!COM:	Stravinsky
!!!OTL:	370_Str-15/5/[11]1-[13]1
**kern	**dynam	**kern	**dynam	**kern	**dynam	**kern	**dynam	**kern	**dynam	**kern	**kern	**dynam
*part7	*part7	*part6	*part6	*part5	*part5	*part4	*part4	*part3	*part3	*part2	*part1	*part1
*staff7	*	*staff6	*	*staff5	*	*staff4	*	*staff3	*	*staff2	*staff1	*
*I"Contrabass	*	*I"Violin	*	*I"T. de B. C. cl. Gr. C.	*	*I"Trombone (Tenor-Bass)	*	*I"C. à P. in A	*	*I"Bassoon	*I"Clarinet in Bb	*
*I'Cb.	*	*I'Vln. I	*	*I'Perc.	*	*I'Tbn.	*	*I'C. à P. in A	*	*I'Bsn.	*I'Cl.	*
!!pagebreak:original
*clefF4	*	*clefG2	*	*clefpercussion2	*	*clefF4	*	*clefG2	*	*clefF4	*clefG2	*
*ITrd0c0	*	*	*	*	*	*	*	*	*	*	*ITrd1c2	*
*k[]	*	*k[]	*	*k[]	*	*k[]	*	*k[]	*	*k[]	*k[]	*
*C:	*	*C:	*	*C:	*	*C:	*	*C:	*	*C:	*C:	*
*M3/8	*	*M3/8	*	*M3/8	*	*M3/8	*	*M3/8	*	*M3/8	*M3/8	*
=1	=	=	=	=	=	=	=	=	=	=	=	=
!	!	!	!	!	!	!	!	!LO:TX:t=Solo	!	!	!	!
8G'^L	ff	8r	.	8xL	f	8r	.	8r	.	8GGL	8r	.
8r	.	8GL 8d	ff	8x	.	4d#X^	f	4ff#X^	f	8r	4ggg^	fff
8D'J 8e	.	8G 8d	.	8x	.	.	.	.	.	8DDJ	.	.
=2	=2	=2	=2	=2	=2	=2	=2	=2	=2	=2	=2	=2
*M3/4	*	*M3/4	*	*M3/4	*	*M3/4	*	*M3/4	*	*M3/4	*M3/4	*
8r	.	8GJ 8d	.	8x	.	4d#X^	.	4ff#X^	.	8r	4ggg^	.
8G'L	.	8r	.	8x	.	.	.	.	.	8GGL	.	.
8r	.	8GL 8d	.	8r	.	4d#^	.	4ff#^	.	8r	4ggg^	.
8D'J 8e	.	8G 8d	.	8xJ	.	.	.	.	.	8DD	.	.
8r	.	8GJ 8d	.	8r	.	8d#L	.	8ff#L	.	8r	8gggL	.
8G'L	.	8r	.	8xL	.	8dnJ	.	8ee#XJ	.	8GGJ	8fff#XJ	.
=3	=3	=3	=3	=3	=3	=3	=3	=3	=3	=3	=3	=3
*M3/8	*	*M3/8	*	*M3/8	*	*M3/8	*	*M3/8	*	*M3/8	*M3/8	*
!LO:TX:i:t=sempre stacc.	!	!	!	!	!	!	!	!	!	!	!	!
8r	.	8GL 8d	.	8x	.	8d#XL	.	8eenL	.	8r	8fffL	.
8DJ 8e	.	8G 8d	.	8x	.	8dn	.	8dd#X	.	8DD	8eee	.
8r	.	8GJ 8d	.	8x	.	8d#XJ	.	8eeJ	.	8r	8fffJ	.
=4	=4	=4	=4	=4	=4	=4	=4	=4	=4	=4	=4	=4
*M3/4	*	*M3/4	*	*M3/4	*	*M3/4	*	*M3/4	*	*M3/4	*M3/4	*
8GL	.	8r	.	8x	.	4B#X	.	4ee#X	.	8GGL	4fff#X	.
8r	.	8GL 8d	.	8xJ	.	.	.	.	.	8r	.	.
8DJ 8e	.	8G 8d	.	8r	.	4B#	.	4ee#	.	8DD	4fff#	.
8r	.	8GJ 8d	.	8xL	.	.	.	.	.	8r	.	.
8GL	.	8r	.	8x	.	8d#XL	.	8ff#XL	.	8GGJ	8gggL	.
8r	.	8GL 8d	.	8x	.	8dnJ	.	8ee#J	.	8r	8fff#J	.
=5	=5	=5	=5	=5	=5	=5	=5	=5	=5	=5	=5	=5
*M3/8	*	*M3/8	*	*M3/8	*	*M3/8	*	*M3/8	*	*M3/8	*M3/8	*
8DJ 8e	.	8G 8d	.	8x	.	8d#XL	.	8eeniL	.	8DDL	8fffiL	.
8r	.	8GJ 8d	.	8x	.	8dn	.	8dd#X	.	8r	8eee	.
8GL	.	8r	.	8xJ	.	8d#XJ	.	8eeJ	.	8GGJ	8fffJ	.
=6	=6	=6	=6	=6	=6	=6	=6	=6	=6	=6	=6	=6
!!pagebreak:original
*M3/4	*	*M3/4	*	*M3/4	*	*M3/4	*	*M3/4	*	*M3/4	*M3/4	*
8r	.	8GL 8d	.	8r	.	4dn	.	4ee#X	.	8r	4fff#X	.
8DJ 8e	.	8G 8d	.	8xL	.	.	.	.	.	8DDL	.	.
8r	.	8GJ 8d	.	8x	.	8d#XL	.	8ee#L	.	8r	8fff#L	.
8GL	.	8r	.	8x	.	8c#XJ	.	8ff#XJ	.	8GG	8gggJ	.
8r	.	8GL 8d	.	8x	.	8dnL	.	8ee#L	.	8r	8fff#L	.
8DJ 8e	.	8G 8d	.	8x	.	8cnJ	.	8eenJ	.	8DDJ	8fffJ	.
=7	=7	=7	=7	=7	=7	=7	=7	=7	=7	=7	=7	=7
*M3/8	*	*M3/8	*	*M3/8	*	*M3/8	*	*M3/8	*	*M3/8	*M3/8	*
8r	.	8GJ 8d	.	8r	.	8dL	.	8dd#XL	.	8r	8eeeL	.
8GL	.	8r	.	8xJ	.	8cn	.	8ddn	.	8GG	8eee-	.
8r	.	8GL 8d	.	8r	.	8e-XJ	.	8dd#XJ	.	8r	8eeeXJ	.
=8	=8	=8	=8	=8	=8	=8	=8	=8	=8	=8	=8	=8
*M2/4	*	*M2/4	*	*M2/4	*	*M2/4	*	*M2/4	*	*M2/4	*M2/4	*
8DJ 8e	.	8G 8d	.	8xL	.	4c#X	.	4ee	.	8DDL	4fff	.
8r	.	8GJ 8d	.	8x	.	.	.	.	.	8r	.	.
8GL	.	8r	.	8x	.	8dL	.	8eeL	.	8GGJ	8fffL	.
8r	.	8GL 8d	.	8x	.	8BJ	.	8dd#XJ	.	8r	8eeeJ	.
=9	=9	=9	=9	=9	=9	=9	=9	=9	=9	=9	=9	=9
*M3/8	*	*M3/8	*	*M3/8	*	*M3/8	*	*M3/8	*	*M3/8	*M3/8	*
8DJ 8e	.	8G 8d	.	8x	.	8c#XL	.	8ddnL	.	8DDL	8eee-L	.
8r	.	8GJ 8d	.	8r	.	8cn	.	8cc#X	.	8r	8ddd	.
8GL	.	8r	.	8xJ	.	8dJ	.	8ddJ	.	8GGJ	8eee-J	.
=10	=10	=10	=10	=10	=10	=10	=10	=10	=10	=10	=10	=10
!!pagebreak:original
*M2/4	*	*M2/4	*	*M2/4	*	*M2/4	*	*M2/4	*	*M2/4	*M2/4	*
8r	.	8GL 8d	.	8r	.	4c#X	.	4dd#X	.	8r	4eeeX	.
8DJ 8e	.	8G 8d	.	8xL	.	.	.	.	.	8DDL	.	.
8r	.	8GJ 8d	.	8x	.	4c#	.	4dd#	.	8r	4eee	.
8GL	.	8r	.	8x	.	.	.	.	.	8GGJ	.	.
=11	=11	=11	=11	=11	=11	=11	=11	=11	=11	=11	=11	=11
*M3/8	*	*M3/8	*	*M3/8	*	*M3/8	*	*M3/8	*	*M3/8	*M3/8	*
8r	.	8GL 8d	.	8x	.	8c#XL	.	8ddnL	.	8r	8eee-L	.
8DJ 8e	.	8G 8d	.	8x	.	8cn	.	8cc#X	.	8DD	8ddd	.
8r	.	8GJ 8d	.	8xJ	.	8dJ	.	8ddJ	.	8r	8eee-J	.
=12	=12	=12	=12	=12	=12	=12	=12	=12	=12	=12	=12	=12
*M2/4	*	*M2/4	*	*M2/4	*	*M2/4	*	*M2/4	*	*M2/4	*M2/4	*
8GL	.	8r	.	8r	.	4c^	.	4dd#X^	<	8GGL	4eeeX^	<
8r	.	8GL 8d	.	8xL	.	.	.	.	.	8r	.	.
8DJ 8e	.	8G 8d	.	8x	.	4c^	.	4dd#^	.	8DDJ	4eee^	.
8r	.	8GJ 8d	.	8x	.	.	.	.	.	8r	.	.
=13	=13	=13	=13	=13	=13	=13	=13	=13	=13	=13	=13	=13
8GL	.	8r	.	8x	.	4c^	.	4dd#X^	.	8GGL	4eee^	.
8r	.	8GL 8d	.	8x	.	.	.	.	.	8r	.	.
8DJ 8e	.	8G 8d	.	8xJ	.	4c^	.	4dd#^	[	8DDJ	4eee^	[
8r	.	8GJ 8d	.	8r	.	.	.	.	.	8r	.	.
=14	=14	=14	=14	=14	=14	=14	=14	=14	=14	=14	=14	=14
!	!	!	!	!	!	!	!	!	!	!LO:TX:t=pp sub.	!	!
!	!	!LO:TX:t=p sub.	!	!	!	!	!	!	!	!LO:TX:t=Solo	!	!
8DL 8e-X	p	8G'L 8f	.	2r	.	2r	.	2r	.	8.cL	2r	.
8r	.	8r	.	.	.	.	.	.	.	.	.	.
.	.	.	.	.	.	.	.	.	.	16B-XJk	.	.
8DJ 8f	.	8G'J 8f	.	.	.	.	.	.	.	4c	.	.
8r	.	8r	.	.	.	.	.	.	.	.	.	.
==	==	==	==	==	==	==	==	==	==	==	==	==
*-	*-	*-	*-	*-	*-	*-	*-	*-	*-	*-	*-	*-
!!!system-decoration: [(s1,s2)][(s3,s4)]s5[(s6,s7)]
!!!RDF**kern: i = editorial accidental
!!!ONB: Converted from MusicXML on 2020/01/17
